X: 7
T: The Ballydesmond
R: polka
M: 2/4
L: 1/8
K: Ador
|: cd/c/ Bc/B/ | AB/A/ G>A | B/c/d ed | g2- gd |
ea ge | dB GA/B/ | ce dB | A2 A2 :|
|: ea ag/e/ | dg gd | ea ab | g>f gd |
ea ge | dB GA/B/ | ce dB | A2 A2 :|


Tune 239	Setting 21681

